X:1
T:Tenting On the Old Camp-Ground
M:4/4
L:1/8
K:A
 E| c2 cB A2 GF| F2 E2 E2 z2| E E2 D D3 C| C4 z2 E2| c- c2 c A3 F|\
 F2- FE E2 z E| G- G2 G F2 E2| A4 z4| EE EE E2 DE| F F2 F F2 z2| EE FF A3 A|\
 B4 z4| cc cB A2 FF| F3 F A2 z A| c3 c c3 B| A4 z4| E E2 E E2 z2| F F2 F F2 z2|\
 EE EE F2 G2| A4 z4|
